img/ui/icons/in-process.svg.svg

<svg width="24" height="24" viewBox="0 0 24 24" fill="none" xmlns="http://www.w3.org/2000/svg">
<path d="M4.79879 5.15786L4.83172 5.12493C5.01663 4.94002 5.31644 4.94002 5.50135 5.12493L7.65672 7.28031C7.84163 7.46522 7.84163 7.76502 7.65672 7.94993L7.62379 7.98286C7.43888 8.16777 7.13908 8.16777 6.95417 7.98286L4.79879 5.82749C4.61388 5.64258 4.61388 5.34278 4.79879 5.15786Z" stroke="#0F0F0F" stroke-width="1.5"/>
<path d="M1.86719 12.2901V12.2435C1.86719 11.982 2.07918 11.77 2.34068 11.77H5.38884C5.65035 11.77 5.86234 11.982 5.86234 12.2435V12.2901C5.86234 12.5516 5.65035 12.7635 5.38884 12.7635H2.34068C2.07918 12.7635 1.86719 12.5516 1.86719 12.2901Z" stroke="#0F0F0F" stroke-width="1.5"/>
<path d="M11.909 1.91418H11.9556C12.2171 1.91418 12.4291 2.12618 12.4291 2.38768V5.43584C12.4291 5.69734 12.2171 5.90933 11.9556 5.90933H11.909C11.6475 5.90933 11.4355 5.69734 11.4355 5.43584V2.38768C11.4355 2.12618 11.6475 1.91418 11.909 1.91418Z" stroke="#0F0F0F" stroke-width="1.5"/>
<path d="M4.82925 19.3472L4.79632 19.3143C4.61141 19.1294 4.61141 18.8296 4.79632 18.6446L6.95169 16.4893C7.13661 16.3044 7.43641 16.3044 7.62132 16.4893L7.65425 16.5222C7.83916 16.7071 7.83916 17.0069 7.65425 17.1918L5.49888 19.3472C5.31396 19.5321 5.01416 19.5321 4.82925 19.3472Z" stroke="#0F0F0F" stroke-width="1.5"/>
<path d="M11.909 18.0906H11.9556C12.2171 18.0906 12.4291 18.3026 12.4291 18.5641V21.6122C12.4291 21.8737 12.2171 22.0857 11.9556 22.0857H11.909C11.6475 22.0857 11.4355 21.8737 11.4355 21.6122V18.5641C11.4355 18.3026 11.6475 18.0906 11.909 18.0906Z" stroke="#0F0F0F" stroke-width="1.5"/>
<path d="M18.1367 12.2901V12.2435C18.1367 11.982 18.3487 11.77 18.6102 11.77H21.6584C21.9199 11.77 22.1319 11.982 22.1319 12.2435V12.2901C22.1319 12.5516 21.9199 12.7635 21.6584 12.7635H18.6102C18.3487 12.7635 18.1367 12.5516 18.1367 12.2901Z" stroke="#0F0F0F" stroke-width="1.5"/>
<path d="M16.2109 16.5175L16.2438 16.4846C16.4287 16.2996 16.7285 16.2996 16.9135 16.4846L19.0688 18.6399C19.2537 18.8248 19.2537 19.1246 19.0688 19.3096L19.0359 19.3425C18.851 19.5274 18.5512 19.5274 18.3663 19.3425L16.2109 17.1871C16.026 17.0022 16.026 16.7024 16.2109 16.5175Z" stroke="#0F0F0F" stroke-width="1.5"/>
</svg>

<svg width="24" height="24" fill="none" xmlns="http://www.w3.org/2000/svg"><path d="m4.799 5.158.033-.033a.474.474 0 0 1 .67 0L7.656 7.28a.473.473 0 0 1 0 .67l-.033.033a.473.473 0 0 1-.67 0L4.8 5.827a.474.474 0 0 1 0-.67ZM1.867 12.29v-.046c0-.262.212-.474.474-.474h3.048c.261 0 .473.212.473.473v.047a.473.473 0 0 1-.473.474H2.34a.473.473 0 0 1-.474-.474ZM11.909 1.914h.047c.261 0 .473.212.473.474v3.048a.474.474 0 0 1-.473.473h-.047a.474.474 0 0 1-.474-.473V2.388c0-.262.213-.474.474-.474ZM4.83 19.347l-.034-.033a.474.474 0 0 1 0-.67l2.156-2.155a.474.474 0 0 1 .67 0l.032.033a.473.473 0 0 1 0 .67L5.5 19.347a.474.474 0 0 1-.67 0ZM11.909 18.09h.047c.261 0 .473.213.473.474v3.048a.474.474 0 0 1-.473.474h-.047a.474.474 0 0 1-.474-.474v-3.048c0-.261.213-.473.474-.473ZM18.137 12.29v-.046c0-.262.212-.474.473-.474h3.048c.262 0 .474.212.474.473v.047a.473.473 0 0 1-.474.474H18.61a.473.473 0 0 1-.473-.474ZM16.21 16.517l.034-.032a.473.473 0 0 1 .67 0l2.155 2.155a.474.474 0 0 1 0 .67l-.033.033a.473.473 0 0 1-.67 0l-2.155-2.156a.473.473 0 0 1 0-.67Z" stroke="#0F0F0F" stroke-width="1.5"/></svg>
